images/30776.svg

<?xml version="1.0" encoding="UTF-8"?>
<svg xmlns="http://www.w3.org/2000/svg" xmlns:xlink="http://www.w3.org/1999/xlink" width="300pt" height="300pt" viewBox="0 0 300 300" version="1.1">
<defs>
<g>
<symbol overflow="visible" id="glyph0-0">
<path style="stroke:none;" d="M 0.59375 2.125 L 0.59375 -8.46875 L 6.59375 -8.46875 L 6.59375 2.125 Z M 1.265625 1.453125 L 5.9375 1.453125 L 5.9375 -7.78125 L 1.265625 -7.78125 Z M 1.265625 1.453125 "/>
</symbol>
<symbol overflow="visible" id="glyph0-1">
<path style="stroke:none;" d="M 7.734375 -8.078125 L 7.734375 -6.828125 C 7.328125 -7.203125 6.898438 -7.476562 6.453125 -7.65625 C 6.003906 -7.84375 5.523438 -7.9375 5.015625 -7.9375 C 4.015625 -7.9375 3.25 -7.628906 2.71875 -7.015625 C 2.1875 -6.398438 1.921875 -5.515625 1.921875 -4.359375 C 1.921875 -3.210938 2.1875 -2.332031 2.71875 -1.71875 C 3.25 -1.101562 4.015625 -0.796875 5.015625 -0.796875 C 5.523438 -0.796875 6.003906 -0.890625 6.453125 -1.078125 C 6.898438 -1.265625 7.328125 -1.539062 7.734375 -1.90625 L 7.734375 -0.671875 C 7.316406 -0.390625 6.875 -0.175781 6.40625 -0.03125 C 5.945312 0.101562 5.460938 0.171875 4.953125 0.171875 C 3.617188 0.171875 2.570312 -0.234375 1.8125 -1.046875 C 1.050781 -1.859375 0.671875 -2.960938 0.671875 -4.359375 C 0.671875 -5.765625 1.050781 -6.875 1.8125 -7.6875 C 2.570312 -8.5 3.617188 -8.90625 4.953125 -8.90625 C 5.472656 -8.90625 5.960938 -8.832031 6.421875 -8.6875 C 6.890625 -8.550781 7.328125 -8.347656 7.734375 -8.078125 Z M 7.734375 -8.078125 "/>
</symbol>
<symbol overflow="visible" id="glyph0-2">
<path style="stroke:none;" d="M 1.125 -9.125 L 2.203125 -9.125 L 2.203125 0 L 1.125 0 Z M 1.125 -9.125 "/>
</symbol>
<symbol overflow="visible" id="glyph0-3">
<path style="stroke:none;" d="M 4.734375 -7.953125 C 3.867188 -7.953125 3.179688 -7.628906 2.671875 -6.984375 C 2.171875 -6.347656 1.921875 -5.472656 1.921875 -4.359375 C 1.921875 -3.265625 2.171875 -2.394531 2.671875 -1.75 C 3.179688 -1.113281 3.867188 -0.796875 4.734375 -0.796875 C 5.585938 -0.796875 6.265625 -1.113281 6.765625 -1.75 C 7.273438 -2.394531 7.53125 -3.265625 7.53125 -4.359375 C 7.53125 -5.472656 7.273438 -6.347656 6.765625 -6.984375 C 6.265625 -7.628906 5.585938 -7.953125 4.734375 -7.953125 Z M 4.734375 -8.90625 C 5.953125 -8.90625 6.925781 -8.492188 7.65625 -7.671875 C 8.394531 -6.847656 8.765625 -5.742188 8.765625 -4.359375 C 8.765625 -2.984375 8.394531 -1.882812 7.65625 -1.0625 C 6.925781 -0.238281 5.953125 0.171875 4.734375 0.171875 C 3.503906 0.171875 2.519531 -0.238281 1.78125 -1.0625 C 1.039062 -1.882812 0.671875 -2.984375 0.671875 -4.359375 C 0.671875 -5.742188 1.039062 -6.847656 1.78125 -7.671875 C 2.519531 -8.492188 3.503906 -8.90625 4.734375 -8.90625 Z M 4.734375 -8.90625 "/>
</symbol>
<symbol overflow="visible" id="glyph0-4">
<path style="stroke:none;" d="M 1.171875 -8.75 L 2.765625 -8.75 L 6.65625 -1.4375 L 6.65625 -8.75 L 7.796875 -8.75 L 7.796875 0 L 6.203125 0 L 2.328125 -7.3125 L 2.328125 0 L 1.171875 0 Z M 1.171875 -8.75 "/>
</symbol>
<symbol overflow="visible" id="glyph0-5">
<path style="stroke:none;" d="M 1.171875 -8.75 L 2.359375 -8.75 L 2.359375 -5.15625 L 6.65625 -5.15625 L 6.65625 -8.75 L 7.84375 -8.75 L 7.84375 0 L 6.65625 0 L 6.65625 -4.171875 L 2.359375 -4.171875 L 2.359375 0 L 1.171875 0 Z M 1.171875 -8.75 "/>
</symbol>
</g>
</defs>
<g id="surface13913">
<rect x="0" y="0" width="300" height="300" style="fill:rgb(100%,100%,100%);fill-opacity:1;stroke:none;"/>
<path style="fill:none;stroke-width:1.2;stroke-linecap:butt;stroke-linejoin:miter;stroke:rgb(0%,80%,0%);stroke-opacity:1;stroke-miterlimit:10;" d="M 66.039062 172.585938 L 64.851562 158.246094 "/>
<path style="fill:none;stroke-width:1.2;stroke-linecap:butt;stroke-linejoin:miter;stroke:rgb(0%,0%,0%);stroke-opacity:1;stroke-miterlimit:10;" d="M 64.851562 158.246094 L 63.660156 143.90625 "/>
<path style=" stroke:none;fill-rule:nonzero;fill:rgb(100%,100%,100%);fill-opacity:1;" d="M 60.039062 165.585938 L 72.039062 165.585938 L 72.039062 179.585938 L 60.039062 179.585938 Z M 60.039062 165.585938 "/>
<g style="fill:rgb(0%,80%,0%);fill-opacity:1;">
  <use xlink:href="#glyph0-1" x="60.039062" y="176.724609"/>
  <use xlink:href="#glyph0-2" x="68.417969" y="176.724609"/>
</g>
<path style="fill:none;stroke-width:1.2;stroke-linecap:butt;stroke-linejoin:miter;stroke:rgb(0%,0%,0%);stroke-opacity:1;stroke-miterlimit:10;" d="M 63.660156 143.90625 L 37.628906 131.628906 "/>
<path style="fill:none;stroke-width:1.2;stroke-linecap:butt;stroke-linejoin:miter;stroke:rgb(0%,0%,0%);stroke-opacity:1;stroke-miterlimit:10;" d="M 63.945312 136.554688 L 43.121094 126.730469 "/>
<path style="fill:none;stroke-width:1.2;stroke-linecap:butt;stroke-linejoin:miter;stroke:rgb(0%,0%,0%);stroke-opacity:1;stroke-miterlimit:10;" d="M 87.308594 127.503906 L 63.660156 143.90625 "/>
<path style="fill:none;stroke-width:1.2;stroke-linecap:butt;stroke-linejoin:miter;stroke:rgb(0%,0%,0%);stroke-opacity:1;stroke-miterlimit:10;" d="M 37.628906 131.628906 L 35.25 102.945312 "/>
<path style="fill:none;stroke-width:1.2;stroke-linecap:butt;stroke-linejoin:miter;stroke:rgb(0%,0%,0%);stroke-opacity:1;stroke-miterlimit:10;" d="M 35.25 102.945312 L 58.898438 86.542969 "/>
<path style="fill:none;stroke-width:1.2;stroke-linecap:butt;stroke-linejoin:miter;stroke:rgb(0%,0%,0%);stroke-opacity:1;stroke-miterlimit:10;" d="M 41.472656 106.871094 L 60.394531 93.746094 "/>
<path style="fill:none;stroke-width:1.2;stroke-linecap:butt;stroke-linejoin:miter;stroke:rgb(0%,0%,0%);stroke-opacity:1;stroke-miterlimit:10;" d="M 58.898438 86.542969 L 84.925781 98.824219 "/>
<path style="fill:none;stroke-width:1.2;stroke-linecap:butt;stroke-linejoin:miter;stroke:rgb(0%,0%,0%);stroke-opacity:1;stroke-miterlimit:10;" d="M 84.925781 98.824219 L 87.308594 127.503906 "/>
<path style="fill:none;stroke-width:1.2;stroke-linecap:butt;stroke-linejoin:miter;stroke:rgb(0%,0%,0%);stroke-opacity:1;stroke-miterlimit:10;" d="M 78.417969 102.25 L 80.320312 125.195312 "/>
<path style="fill:none;stroke-width:1.2;stroke-linecap:butt;stroke-linejoin:miter;stroke:rgb(0%,0%,0%);stroke-opacity:1;stroke-miterlimit:10;" d="M 87.308594 127.503906 L 113.335938 139.78125 "/>
<path style="fill:none;stroke-width:1.2;stroke-linecap:butt;stroke-linejoin:miter;stroke:rgb(0%,0%,0%);stroke-opacity:1;stroke-miterlimit:10;" d="M 113.335938 139.78125 L 115.71875 168.464844 "/>
<path style="fill:none;stroke-width:1.2;stroke-linecap:butt;stroke-linejoin:miter;stroke:rgb(0%,0%,0%);stroke-opacity:1;stroke-miterlimit:10;" d="M 120.324219 142.089844 L 122.226562 165.035156 "/>
<path style="fill:none;stroke-width:1.2;stroke-linecap:butt;stroke-linejoin:miter;stroke:rgb(0%,0%,0%);stroke-opacity:1;stroke-miterlimit:10;" d="M 136.984375 123.378906 L 113.335938 139.78125 "/>
<path style="fill:none;stroke-width:1.2;stroke-linecap:butt;stroke-linejoin:miter;stroke:rgb(0%,0%,0%);stroke-opacity:1;stroke-miterlimit:10;" d="M 115.71875 168.464844 L 141.746094 180.742188 "/>
<path style="fill:none;stroke-width:1.2;stroke-linecap:butt;stroke-linejoin:miter;stroke:rgb(0%,0%,0%);stroke-opacity:1;stroke-miterlimit:10;" d="M 141.746094 180.742188 L 142.9375 195.082031 "/>
<path style="fill:none;stroke-width:1.2;stroke-linecap:butt;stroke-linejoin:miter;stroke:rgb(100%,0%,0%);stroke-opacity:1;stroke-miterlimit:10;" d="M 142.9375 195.082031 L 144.128906 209.425781 "/>
<path style="fill:none;stroke-width:1.2;stroke-linecap:butt;stroke-linejoin:miter;stroke:rgb(0%,0%,0%);stroke-opacity:1;stroke-miterlimit:10;" d="M 141.746094 180.742188 L 165.394531 164.339844 "/>
<path style="fill:none;stroke-width:1.2;stroke-linecap:butt;stroke-linejoin:miter;stroke:rgb(0%,0%,0%);stroke-opacity:1;stroke-miterlimit:10;" d="M 140.253906 173.539062 L 159.171875 160.417969 "/>
<path style="fill:none;stroke-width:1.2;stroke-linecap:butt;stroke-linejoin:miter;stroke:rgb(100%,0%,0%);stroke-opacity:1;stroke-miterlimit:10;" d="M 144.128906 209.425781 L 132.304688 217.625 "/>
<path style="fill:none;stroke-width:1.2;stroke-linecap:butt;stroke-linejoin:miter;stroke:rgb(0%,0%,0%);stroke-opacity:1;stroke-miterlimit:10;" d="M 132.304688 217.625 L 120.480469 225.828125 "/>
<path style=" stroke:none;fill-rule:nonzero;fill:rgb(100%,100%,100%);fill-opacity:1;" d="M 139.128906 202.425781 L 149.128906 202.425781 L 149.128906 216.425781 L 139.128906 216.425781 Z M 139.128906 202.425781 "/>
<g style="fill:rgb(100%,0%,0%);fill-opacity:1;">
  <use xlink:href="#glyph0-3" x="139.128906" y="213.564453"/>
</g>
<path style="fill:none;stroke-width:1.2;stroke-linecap:butt;stroke-linejoin:miter;stroke:rgb(0%,0%,0%);stroke-opacity:1;stroke-miterlimit:10;" d="M 165.394531 164.339844 L 163.015625 135.660156 "/>
<path style="fill:none;stroke-width:1.2;stroke-linecap:butt;stroke-linejoin:miter;stroke:rgb(0%,0%,0%);stroke-opacity:1;stroke-miterlimit:10;" d="M 163.015625 135.660156 L 174.839844 127.457031 "/>
<path style="fill:none;stroke-width:1.2;stroke-linecap:butt;stroke-linejoin:miter;stroke:rgb(0%,0%,100%);stroke-opacity:1;stroke-miterlimit:10;" d="M 174.839844 127.457031 L 186.664062 119.257812 "/>
<path style="fill:none;stroke-width:1.2;stroke-linecap:butt;stroke-linejoin:miter;stroke:rgb(0%,0%,0%);stroke-opacity:1;stroke-miterlimit:10;" d="M 136.984375 123.378906 L 163.015625 135.660156 "/>
<path style="fill:none;stroke-width:1.2;stroke-linecap:butt;stroke-linejoin:miter;stroke:rgb(0%,0%,0%);stroke-opacity:1;stroke-miterlimit:10;" d="M 136.699219 130.734375 L 157.523438 140.554688 "/>
<path style="fill:none;stroke-width:1.2;stroke-linecap:butt;stroke-linejoin:miter;stroke:rgb(0%,0%,100%);stroke-opacity:1;stroke-miterlimit:10;" d="M 186.664062 119.257812 L 199.675781 125.398438 "/>
<path style="fill:none;stroke-width:1.2;stroke-linecap:butt;stroke-linejoin:miter;stroke:rgb(0%,0%,0%);stroke-opacity:1;stroke-miterlimit:10;" d="M 199.675781 125.398438 L 212.691406 131.535156 "/>
<path style="fill:none;stroke-width:1.2;stroke-linecap:butt;stroke-linejoin:miter;stroke:rgb(0%,0%,100%);stroke-opacity:1;stroke-miterlimit:10;" d="M 186.664062 119.257812 L 185.472656 104.917969 "/>
<path style="fill:none;stroke-width:1.2;stroke-linecap:butt;stroke-linejoin:miter;stroke:rgb(0%,0%,0%);stroke-opacity:1;stroke-miterlimit:10;" d="M 185.472656 104.917969 L 184.28125 90.574219 "/>
<path style=" stroke:none;fill-rule:nonzero;fill:rgb(100%,100%,100%);fill-opacity:1;" d="M 182.664062 112.257812 L 191.664062 112.257812 L 191.664062 126.257812 L 182.664062 126.257812 Z M 182.664062 112.257812 "/>
<g style="fill:rgb(0%,0%,100%);fill-opacity:1;">
  <use xlink:href="#glyph0-4" x="182.664062" y="123.396484"/>
</g>
<path style="fill:none;stroke-width:1.2;stroke-linecap:butt;stroke-linejoin:miter;stroke:rgb(0%,0%,0%);stroke-opacity:1;stroke-miterlimit:10;" d="M 212.691406 131.535156 L 215.074219 160.21875 "/>
<path style="fill:none;stroke-width:1.2;stroke-linecap:butt;stroke-linejoin:miter;stroke:rgb(0%,0%,0%);stroke-opacity:1;stroke-miterlimit:10;" d="M 219.679688 133.84375 L 221.582031 156.789062 "/>
<path style="fill:none;stroke-width:1.2;stroke-linecap:butt;stroke-linejoin:miter;stroke:rgb(0%,0%,0%);stroke-opacity:1;stroke-miterlimit:10;" d="M 236.339844 115.132812 L 212.691406 131.535156 "/>
<path style="fill:none;stroke-width:1.2;stroke-linecap:butt;stroke-linejoin:miter;stroke:rgb(0%,0%,0%);stroke-opacity:1;stroke-miterlimit:10;" d="M 215.074219 160.21875 L 203.25 168.417969 "/>
<path style="fill:none;stroke-width:1.2;stroke-linecap:butt;stroke-linejoin:miter;stroke:rgb(0%,80%,0%);stroke-opacity:1;stroke-miterlimit:10;" d="M 203.25 168.417969 L 191.425781 176.621094 "/>
<path style="fill:none;stroke-width:1.2;stroke-linecap:butt;stroke-linejoin:miter;stroke:rgb(0%,0%,0%);stroke-opacity:1;stroke-miterlimit:10;" d="M 215.074219 160.21875 L 241.101562 172.496094 "/>
<path style=" stroke:none;fill-rule:nonzero;fill:rgb(100%,100%,100%);fill-opacity:1;" d="M 179.425781 169.621094 L 191.425781 169.621094 L 191.425781 183.621094 L 179.425781 183.621094 Z M 179.425781 169.621094 "/>
<g style="fill:rgb(0%,80%,0%);fill-opacity:1;">
  <use xlink:href="#glyph0-1" x="179.425781" y="180.759766"/>
  <use xlink:href="#glyph0-2" x="187.804688" y="180.759766"/>
</g>
<path style="fill:none;stroke-width:1.2;stroke-linecap:butt;stroke-linejoin:miter;stroke:rgb(0%,0%,0%);stroke-opacity:1;stroke-miterlimit:10;" d="M 241.101562 172.496094 L 264.75 156.09375 "/>
<path style="fill:none;stroke-width:1.2;stroke-linecap:butt;stroke-linejoin:miter;stroke:rgb(0%,0%,0%);stroke-opacity:1;stroke-miterlimit:10;" d="M 239.605469 165.292969 L 258.527344 152.167969 "/>
<path style="fill:none;stroke-width:1.2;stroke-linecap:butt;stroke-linejoin:miter;stroke:rgb(0%,0%,0%);stroke-opacity:1;stroke-miterlimit:10;" d="M 264.75 156.09375 L 262.371094 127.414062 "/>
<path style="fill:none;stroke-width:1.2;stroke-linecap:butt;stroke-linejoin:miter;stroke:rgb(0%,0%,0%);stroke-opacity:1;stroke-miterlimit:10;" d="M 262.371094 127.414062 L 236.339844 115.132812 "/>
<path style="fill:none;stroke-width:1.2;stroke-linecap:butt;stroke-linejoin:miter;stroke:rgb(0%,0%,0%);stroke-opacity:1;stroke-miterlimit:10;" d="M 256.878906 132.308594 L 236.054688 122.484375 "/>
<path style="fill:none;stroke-width:1.2;stroke-linecap:butt;stroke-linejoin:miter;stroke:rgb(0%,0%,0%);stroke-opacity:1;stroke-miterlimit:10;" d="M 236.339844 115.132812 L 235.148438 100.792969 "/>
<path style="fill:none;stroke-width:1.2;stroke-linecap:butt;stroke-linejoin:miter;stroke:rgb(0%,80%,0%);stroke-opacity:1;stroke-miterlimit:10;" d="M 235.148438 100.792969 L 233.960938 86.453125 "/>
<path style=" stroke:none;fill-rule:nonzero;fill:rgb(100%,100%,100%);fill-opacity:1;" d="M 227.960938 79.453125 L 239.960938 79.453125 L 239.960938 93.453125 L 227.960938 93.453125 Z M 227.960938 79.453125 "/>
<g style="fill:rgb(0%,80%,0%);fill-opacity:1;">
  <use xlink:href="#glyph0-1" x="227.960938" y="90.591797"/>
  <use xlink:href="#glyph0-2" x="236.339844" y="90.591797"/>
</g>
<path style="fill:none;stroke-width:1.2;stroke-linecap:butt;stroke-linejoin:miter;stroke:rgb(0%,0%,0%);stroke-opacity:1;stroke-miterlimit:10;" d="M 186.210938 93.359375 L 198.035156 85.15625 "/>
<path style="fill:none;stroke-width:1.2;stroke-linecap:butt;stroke-linejoin:miter;stroke:rgb(100%,0%,0%);stroke-opacity:1;stroke-miterlimit:10;" d="M 198.035156 85.15625 L 209.859375 76.957031 "/>
<path style="fill:none;stroke-width:1.2;stroke-linecap:butt;stroke-linejoin:miter;stroke:rgb(0%,0%,0%);stroke-opacity:1;stroke-miterlimit:10;" d="M 182.351562 87.792969 L 194.175781 79.59375 "/>
<path style="fill:none;stroke-width:1.2;stroke-linecap:butt;stroke-linejoin:miter;stroke:rgb(100%,0%,0%);stroke-opacity:1;stroke-miterlimit:10;" d="M 194.175781 79.59375 L 206 71.390625 "/>
<path style="fill:none;stroke-width:1.2;stroke-linecap:butt;stroke-linejoin:miter;stroke:rgb(0%,0%,0%);stroke-opacity:1;stroke-miterlimit:10;" d="M 184.28125 90.574219 L 171.269531 84.4375 "/>
<path style="fill:none;stroke-width:1.2;stroke-linecap:butt;stroke-linejoin:miter;stroke:rgb(0%,0%,100%);stroke-opacity:1;stroke-miterlimit:10;" d="M 171.269531 84.4375 L 158.253906 78.296875 "/>
<path style=" stroke:none;fill-rule:nonzero;fill:rgb(100%,100%,100%);fill-opacity:1;" d="M 202.929688 67.171875 L 212.929688 67.171875 L 212.929688 81.171875 L 202.929688 81.171875 Z M 202.929688 67.171875 "/>
<g style="fill:rgb(100%,0%,0%);fill-opacity:1;">
  <use xlink:href="#glyph0-3" x="202.929688" y="78.310547"/>
</g>
<path style="fill:none;stroke-width:1.2;stroke-linecap:butt;stroke-linejoin:miter;stroke:rgb(0%,0%,100%);stroke-opacity:1;stroke-miterlimit:10;" d="M 158.253906 78.296875 L 146.429688 86.496094 "/>
<path style="fill:none;stroke-width:1.2;stroke-linecap:butt;stroke-linejoin:miter;stroke:rgb(0%,0%,0%);stroke-opacity:1;stroke-miterlimit:10;" d="M 146.429688 86.496094 L 134.605469 94.699219 "/>
<path style=" stroke:none;fill-rule:nonzero;fill:rgb(100%,100%,100%);fill-opacity:1;" d="M 149.253906 71.296875 L 167.253906 71.296875 L 167.253906 85.296875 L 149.253906 85.296875 Z M 149.253906 71.296875 "/>
<g style="fill:rgb(0%,0%,100%);fill-opacity:1;">
  <use xlink:href="#glyph0-4" x="149.253906" y="82.435547"/>
  <use xlink:href="#glyph0-5" x="158.230469" y="82.435547"/>
</g>
<path style="fill:none;stroke-width:1.2;stroke-linecap:butt;stroke-linejoin:miter;stroke:rgb(0%,0%,0%);stroke-opacity:1;stroke-miterlimit:10;" d="M 134.605469 94.699219 L 136.984375 123.378906 "/>
</g>
</svg>

<svg xmlns="http://www.w3.org/2000/svg" xmlns:xlink="http://www.w3.org/1999/xlink" width="300pt" height="300pt" viewBox="0 0 300 300"><defs><symbol overflow="visible"><path d="M.594 2.125V-8.47h6V2.126zm.672-.672h4.671V-7.78h-4.67zm0 0"/></symbol><symbol overflow="visible" id="a"><path d="M7.734-8.078v1.25c-.406-.375-.836-.65-1.28-.828-.45-.188-.93-.282-1.438-.282-1 0-1.766.31-2.297.922-.533.618-.798 1.5-.798 2.657 0 1.15.266 2.028.797 2.64.53.618 1.296.923 2.296.923.507 0 .988-.094 1.437-.28.445-.19.875-.462 1.28-.83V-.67c-.417.28-.858.496-1.327.64-.46.134-.945.204-1.453.204-1.336 0-2.383-.406-3.14-1.22-.762-.81-1.14-1.913-1.14-3.31 0-1.408.378-2.517 1.14-3.33.757-.812 1.804-1.218 3.14-1.218.52 0 1.008.074 1.47.22.468.135.905.338 1.31.608zm0 0"/></symbol><symbol overflow="visible" id="b"><path d="M1.125-9.125h1.078V0H1.125zm0 0"/></symbol><symbol overflow="visible" id="c"><path d="M4.734-7.953c-.867 0-1.554.324-2.062.97-.5.635-.75 1.51-.75 2.624 0 1.094.25 1.965.75 2.61.508.637 1.195.953 2.062.953.852 0 1.532-.316 2.032-.953.507-.645.765-1.516.765-2.61 0-1.113-.257-1.988-.764-2.624-.5-.645-1.18-.97-2.032-.97zm0-.953c1.22 0 2.192.414 2.922 1.234.74.824 1.11 1.93 1.11 3.313 0 1.376-.37 2.477-1.11 3.298C6.926-.24 5.953.17 4.734.17c-1.23 0-2.214-.41-2.953-1.234C1.04-1.882.673-2.984.673-4.36c0-1.382.367-2.488 1.11-3.312.738-.82 1.722-1.234 2.952-1.234zm0 0"/></symbol><symbol overflow="visible" id="d"><path d="M1.172-8.75h1.594l3.89 7.313V-8.75h1.14V0H6.204L2.328-7.313V0H1.172zm0 0"/></symbol><symbol overflow="visible" id="e"><path d="M1.172-8.75H2.36v3.594h4.296V-8.75h1.188V0H6.656v-4.172H2.36V0H1.17zm0 0"/></symbol></defs><g><path fill="#fff" d="M0 0h300v300H0z"/><path d="M66.04 172.586l-1.188-14.34" stroke-width="1.2" stroke="#0c0" stroke-miterlimit="10" fill="none"/><path d="M64.852 158.246l-1.192-14.34" stroke-width="1.2" stroke="#000" stroke-miterlimit="10" fill="none"/><path d="M60.04 165.586h12v14h-12zm0 0" fill="#fff"/><g fill="#0c0"><use xlink:href="#a" x="60.039" y="176.725"/><use xlink:href="#b" x="68.418" y="176.725"/></g><path d="M63.66 143.906L37.63 131.63M63.945 136.555L43.12 126.73M87.31 127.504l-23.65 16.402M37.63 131.63l-2.38-28.685M35.25 102.945l23.648-16.402M41.473 106.87l18.922-13.124M58.898 86.543l26.028 12.28M84.926 98.824l2.383 28.68M78.418 102.25l1.902 22.945M87.31 127.504l26.026 12.277M113.336 139.78l2.383 28.685M120.324 142.09l1.903 22.945M136.984 123.38l-23.648 16.4M115.72 168.465l26.026 12.277M141.746 180.742l1.19 14.34" stroke-width="1.2" stroke="#000" stroke-miterlimit="10" fill="none"/><path d="M142.938 195.082l1.19 14.344" stroke-width="1.2" stroke="#f00" stroke-miterlimit="10" fill="none"/><path d="M141.746 180.742l23.65-16.402M140.254 173.54l18.918-13.122" stroke-width="1.2" stroke="#000" stroke-miterlimit="10" fill="none"/><path d="M144.13 209.426l-11.825 8.2" stroke-width="1.2" stroke="#f00" stroke-miterlimit="10" fill="none"/><path d="M132.305 217.625l-11.825 8.203" stroke-width="1.2" stroke="#000" stroke-miterlimit="10" fill="none"/><path d="M139.13 202.426h10v14h-10zm0 0" fill="#fff"/><use xlink:href="#c" x="139.129" y="213.564" fill="#f00"/><path d="M165.395 164.34l-2.38-28.68M163.016 135.66l11.824-8.203" stroke-width="1.2" stroke="#000" stroke-miterlimit="10" fill="none"/><path d="M174.84 127.457l11.824-8.2" stroke-width="1.2" stroke="#00f" stroke-miterlimit="10" fill="none"/><path d="M136.984 123.38l26.032 12.28M136.7 130.734l20.823 9.82" stroke-width="1.2" stroke="#000" stroke-miterlimit="10" fill="none"/><path d="M186.664 119.258l13.012 6.14" stroke-width="1.2" stroke="#00f" stroke-miterlimit="10" fill="none"/><path d="M199.676 125.398l13.015 6.137" stroke-width="1.2" stroke="#000" stroke-miterlimit="10" fill="none"/><path d="M186.664 119.258l-1.19-14.34" stroke-width="1.2" stroke="#00f" stroke-miterlimit="10" fill="none"/><path d="M185.473 104.918l-1.192-14.344" stroke-width="1.2" stroke="#000" stroke-miterlimit="10" fill="none"/><path d="M182.664 112.258h9v14h-9zm0 0" fill="#fff"/><use xlink:href="#d" x="182.664" y="123.396" fill="#00f"/><path d="M212.69 131.535l2.384 28.684M219.68 133.844l1.902 22.945M236.34 115.133l-23.65 16.402M215.074 160.22l-11.824 8.198" stroke-width="1.2" stroke="#000" stroke-miterlimit="10" fill="none"/><path d="M203.25 168.418l-11.824 8.203" stroke-width="1.2" stroke="#0c0" stroke-miterlimit="10" fill="none"/><path d="M215.074 160.22l26.028 12.276" stroke-width="1.2" stroke="#000" stroke-miterlimit="10" fill="none"/><path d="M179.426 169.62h12v14h-12zm0 0" fill="#fff"/><g fill="#0c0"><use xlink:href="#a" x="179.426" y="180.76"/><use xlink:href="#b" x="187.805" y="180.76"/></g><path d="M241.102 172.496l23.648-16.402M239.605 165.293l18.922-13.125M264.75 156.094l-2.38-28.68M262.37 127.414l-26.03-12.28M256.88 132.31l-20.825-9.826M236.34 115.133l-1.192-14.34" stroke-width="1.2" stroke="#000" stroke-miterlimit="10" fill="none"/><path d="M235.148 100.793l-1.187-14.34" stroke-width="1.2" stroke="#0c0" stroke-miterlimit="10" fill="none"/><path d="M227.96 79.453h12v14h-12zm0 0" fill="#fff"/><g fill="#0c0"><use xlink:href="#a" x="227.961" y="90.592"/><use xlink:href="#b" x="236.34" y="90.592"/></g><path d="M186.21 93.36l11.825-8.204" stroke-width="1.2" stroke="#000" stroke-miterlimit="10" fill="none"/><path d="M198.035 85.156l11.824-8.2" stroke-width="1.2" stroke="#f00" stroke-miterlimit="10" fill="none"/><path d="M182.352 87.793l11.824-8.2" stroke-width="1.2" stroke="#000" stroke-miterlimit="10" fill="none"/><path d="M194.176 79.594L206 71.39" stroke-width="1.2" stroke="#f00" stroke-miterlimit="10" fill="none"/><path d="M184.28 90.574l-13.01-6.136" stroke-width="1.2" stroke="#000" stroke-miterlimit="10" fill="none"/><path d="M171.27 84.438l-13.016-6.14" stroke-width="1.2" stroke="#00f" stroke-miterlimit="10" fill="none"/><path d="M202.93 67.172h10v14h-10zm0 0" fill="#fff"/><use xlink:href="#c" x="202.93" y="78.311" fill="#f00"/><path d="M158.254 78.297l-11.824 8.2" stroke-width="1.2" stroke="#00f" stroke-miterlimit="10" fill="none"/><path d="M146.43 86.496L134.605 94.7" stroke-width="1.2" stroke="#000" stroke-miterlimit="10" fill="none"/><path d="M149.254 71.297h18v14h-18zm0 0" fill="#fff"/><g fill="#00f"><use xlink:href="#d" x="149.254" y="82.436"/><use xlink:href="#e" x="158.23" y="82.436"/></g><path d="M134.605 94.7l2.38 28.68" stroke-width="1.2" stroke="#000" stroke-miterlimit="10" fill="none"/></g></svg>
